admin/src/theme/img/safetyequipment/big/N.svg

<svg width="32" height="32" viewBox="0 0 32 32" xmlns="http://www.w3.org/2000/svg">
  <g fill="none" fill-rule="evenodd">
    <path d="M0 0h32v32H0z"/>
    <path d="M11.24 30.8533333h9.52V32h-9.52v-1.1466667Zm8 0h-6.48L16 18.7866667l3.24 12.0666666ZM13.3333333 6.68h5.3333334L16 11.2533333 13.3333333 6.68Zm0 4.5733333h5.3333334L16 15.8266667l-2.6666667-4.5733334Zm2.0933334-.9466666v.9466666H16l-.5733333-.9466666Zm0 0v.9466666H16l-.5733333-.9466666Zm0 4.5333333v1.0266667H16L15.4266667 14.84Zm0 0v1.0266667H16L15.4266667 14.84Zm0 .9866667h1.1466666V18.8h-1.1466666v-2.9733333Zm0 5.1066666V18.8H16l-.5733333 2.1333333Zm1.1466666-10.6266666v.9466666H16l.5733333-.9466666Zm0 4.5733333v.9866667H16L16.5733333 14.88Zm0 6.0133333L16 18.8h.5733333v2.0933333Z" fill="#EC0E0E" fill-rule="nonzero"/>
  </g>
</svg>

<?xml version="1.0" encoding="UTF-8"?>
<svg width="32px" height="32px" viewBox="0 0 32 32" version="1.1" xmlns="http://www.w3.org/2000/svg" xmlns:xlink="http://www.w3.org/1999/xlink">
    <title>F5BA7C05-0AF4-4F40-8D8F-BC8F318CEE4B</title>
    <g id="Squat-laskuri" stroke="none" stroke-width="1" fill="none" fill-rule="evenodd">
        <g id="colors_and_typography" transform="translate(-766.000000, -1050.000000)">
            <g id="turvalaite_ikonit" transform="translate(718.000000, 906.000000)">
                <g id="Asset-40" transform="translate(48.000000, 144.000000)">
                    <rect id="Rectangle" x="0" y="0" width="32" height="32"></rect>
                    <path d="M11.24,30.8533333 L20.76,30.8533333 L20.76,32 L11.24,32 L11.24,30.8533333 Z M19.24,30.8533333 L12.76,30.8533333 L16,18.7866667 L19.24,30.8533333 Z M13.3333333,6.68 L18.6666667,6.68 L16,11.2533333 L13.3333333,6.68 Z M13.3333333,11.2533333 L18.6666667,11.2533333 L16,15.8266667 L13.3333333,11.2533333 Z M15.4266667,10.3066667 L15.4266667,11.2533333 L16,11.2533333 L15.4266667,10.3066667 Z M15.4266667,10.3066667 L15.4266667,11.2533333 L16,11.2533333 L15.4266667,10.3066667 Z M15.4266667,14.84 L15.4266667,15.8666667 L16,15.8666667 L15.4266667,14.84 Z M15.4266667,14.84 L15.4266667,15.8666667 L16,15.8666667 L15.4266667,14.84 Z M15.4266667,15.8266667 L16.5733333,15.8266667 L16.5733333,18.8 L15.4266667,18.8 L15.4266667,15.8266667 Z M15.4266667,20.9333333 L15.4266667,18.8 L16,18.8 L15.4266667,20.9333333 Z M16.5733333,10.3066667 L16.5733333,11.2533333 L16,11.2533333 L16.5733333,10.3066667 Z M16.5733333,14.88 L16.5733333,15.8666667 L16,15.8666667 L16.5733333,14.88 Z M16.5733333,20.8933333 L16,18.8 L16.5733333,18.8 L16.5733333,20.8933333 Z" id="Shape" fill="#EC0E0E" fill-rule="nonzero"></path>
                </g>
            </g>
        </g>
    </g>
</svg>
